public/assets/gas1.svg

<svg width="79" height="103" viewBox="0 0 79 103" fill="none" xmlns="http://www.w3.org/2000/svg">
<path d="M78.3345 103H0.665543C0.292839 103 0 102.705 0 102.329V0.670835C0 0.295167 0.292839 0 0.665543 0H78.3345C78.7072 0 79 0.295167 79 0.670835V102.329C79 102.691 78.7072 103 78.3345 103Z" fill="url(#paint0_linear_57_222)"/>
<path d="M63.0939 98.6929H15.9202C15.1881 98.6929 14.5758 98.116 14.5359 97.378L9.59755 5.71514C9.55762 4.95039 10.1699 4.29297 10.9286 4.29297H68.0855C68.8575 4.29297 69.4565 4.93697 69.4166 5.71514L64.465 97.378C64.425 98.116 63.826 98.6929 63.0939 98.6929Z" fill="#FEF7EC" stroke="#062023" stroke-width="3" stroke-miterlimit="10" stroke-linecap="round" stroke-linejoin="round"/>
<path d="M54.8139 93.541H24.1856C22.7214 93.541 21.5234 92.3335 21.5234 90.8577V77.2263C21.5234 75.7505 22.7214 74.543 24.1856 74.543H54.8139C56.2781 74.543 57.4761 75.7505 57.4761 77.2263V90.8577C57.4761 92.3335 56.2781 93.541 54.8139 93.541Z" fill="url(#paint1_linear_57_222)"/>
<path d="M51.2203 86.2693C52.4407 86.2693 53.4299 85.2722 53.4299 84.0421C53.4299 82.8121 52.4407 81.8149 51.2203 81.8149C50 81.8149 49.0107 82.8121 49.0107 84.0421C49.0107 85.2722 50 86.2693 51.2203 86.2693Z" fill="#FEF7EC"/>
<path d="M27.7799 86.2698C29.0002 86.2698 29.9895 85.2726 29.9895 84.0426C29.9895 82.8126 29.0002 81.8154 27.7799 81.8154C26.5596 81.8154 25.5703 82.8126 25.5703 84.0426C25.5703 85.2726 26.5596 86.2698 27.7799 86.2698Z" fill="#FEF7EC"/>
<path d="M46.7747 79.2656H32.2393V88.8183H46.7747V79.2656Z" fill="#062023"/>
<g clip-path="url(#clip0_57_222)">
<path d="M44.7597 56.6605C44.4025 56.8519 44.0256 56.4374 44.2444 56.0943C45.4314 54.232 46.5556 51.0984 44.7646 47.0627C41.7779 40.3328 39.9605 36.8471 39.9605 36.8471C39.9605 36.8471 38.9939 40.9148 36.3735 44.5316C33.8515 48.0125 32.4711 52.3903 34.6965 56.0373C34.9054 56.3796 34.5371 56.7834 34.1822 56.6004C31.4275 55.18 28.3378 52.3309 27.9892 46.6614C27.8607 44.9289 28.0535 42.5035 29.0174 39.4428C30.2567 35.5636 31.7804 33.7535 32.6619 32.9762C32.9256 32.7436 33.3357 32.9497 33.3141 33.3022C33.0572 37.4878 34.6195 38.55 35.5087 36.1562C35.8638 35.2001 36.0709 33.5465 36.0709 31.5326C36.0709 28.1799 37.0359 24.7286 39.1635 21.9241C39.7168 21.1947 40.3642 20.5132 41.1069 19.9321C41.3758 19.7216 41.7656 19.9332 41.741 20.2754C41.5776 22.5482 41.7256 29.062 47.3952 36.844C52.5359 44.0626 50.5439 49.6065 49.8371 51.108C48.4856 53.9846 46.6006 55.6738 44.7597 56.6605Z" fill="#009D8F"/>
</g>
<defs>
<linearGradient id="paint0_linear_57_222" x1="-5.59989" y1="6.03738" x2="85.3197" y2="96.2398" gradientUnits="userSpaceOnUse">
<stop offset="0.00249518" stop-color="#28C985"/>
<stop offset="1" stop-color="#18808A"/>
</linearGradient>
<linearGradient id="paint1_linear_57_222" x1="26.5844" y1="71.0166" x2="52.6252" y2="96.852" gradientUnits="userSpaceOnUse">
<stop offset="0.00249518" stop-color="#28C985"/>
<stop offset="1" stop-color="#18808A"/>
</linearGradient>
<clipPath id="clip0_57_222">
<rect width="36.5699" height="36.8607" fill="white" transform="matrix(-1 0 0 1 57.668 19.8481)"/>
</clipPath>
</defs>
</svg>

<svg width="79" height="103" fill="none" xmlns="http://www.w3.org/2000/svg"><path d="M78.335 103H.665a.662.662 0 0 1-.665-.671V.671C0 .295.293 0 .666 0h77.669c.372 0 .665.295.665.67V102.33a.67.67 0 0 1-.665.671z" fill="url(#a)"/><path d="M63.094 98.693H15.92a1.39 1.39 0 0 1-1.384-1.315L9.598 5.715c-.04-.765.572-1.422 1.33-1.422h57.157c.773 0 1.372.644 1.332 1.422l-4.952 91.663a1.379 1.379 0 0 1-1.371 1.315z" fill="#FEF7EC" stroke="#062023" stroke-width="3" stroke-miterlimit="10" stroke-linecap="round" stroke-linejoin="round"/><path d="M54.814 93.541H24.186c-1.465 0-2.663-1.207-2.663-2.683V77.226c0-1.475 1.198-2.683 2.663-2.683h30.628c1.464 0 2.662 1.207 2.662 2.683v13.632c0 1.475-1.198 2.683-2.662 2.683z" fill="url(#b)"/><path d="M51.22 86.27c1.22 0 2.21-.998 2.21-2.228 0-1.23-.99-2.227-2.21-2.227s-2.21.997-2.21 2.227.99 2.227 2.21 2.227zM27.78 86.27c1.22 0 2.21-.997 2.21-2.227s-.99-2.228-2.21-2.228-2.21.998-2.21 2.228c0 1.23.99 2.227 2.21 2.227z" fill="#FEF7EC"/><path d="M46.775 79.266H32.239v9.552h14.536v-9.552z" fill="#062023"/><g clip-path="url(#c)"><path d="M44.76 56.66c-.357.192-.734-.223-.516-.566 1.187-1.862 2.312-4.996.52-9.031-2.986-6.73-4.803-10.216-4.803-10.216s-.967 4.068-3.587 7.685c-2.523 3.48-3.903 7.858-1.678 11.505.21.343-.159.746-.514.563-2.755-1.42-5.844-4.27-6.193-9.939-.128-1.732.064-4.157 1.028-7.218 1.24-3.88 2.763-5.69 3.645-6.467.264-.232.674-.026.652.326-.257 4.186 1.306 5.248 2.195 2.854.355-.956.562-2.61.562-4.623 0-3.353.965-6.804 3.093-9.609.553-.73 1.2-1.41 1.943-1.992a.394.394 0 0 1 .634.343c-.163 2.273-.015 8.787 5.654 16.569 5.14 7.219 3.149 12.762 2.442 14.264-1.351 2.877-3.236 4.566-5.077 5.553z" fill="#009D8F"/></g><defs><linearGradient id="a" x1="-5.6" y1="6.037" x2="85.32" y2="96.24" gradientUnits="userSpaceOnUse"><stop offset=".002" stop-color="#28C985"/><stop offset="1" stop-color="#18808A"/></linearGradient><linearGradient id="b" x1="26.584" y1="71.017" x2="52.625" y2="96.852" gradientUnits="userSpaceOnUse"><stop offset=".002" stop-color="#28C985"/><stop offset="1" stop-color="#18808A"/></linearGradient><clipPath id="c"><path fill="#fff" transform="matrix(-1 0 0 1 57.668 19.848)" d="M0 0h36.57v36.861H0z"/></clipPath></defs></svg>
